src/assets/icons/work-6.svg

<svg width="47" height="47" viewBox="0 0 47 47" fill="none" xmlns="http://www.w3.org/2000/svg">
<path fill-rule="evenodd" clip-rule="evenodd" d="M14.5007 29.2557C14.7593 30.0246 14.3456 30.8574 13.5767 31.116C11.0871 31.9532 9.76399 34.0432 9.05626 36.1685C8.77523 37.0124 8.60544 37.8248 8.50342 38.4966C9.17519 38.3946 9.98763 38.2248 10.8316 37.9438C12.9568 37.236 15.0468 35.9129 15.884 33.4233C16.1426 32.6544 16.9755 32.2407 17.7443 32.4993C18.5132 32.7578 18.9269 33.5907 18.6683 34.3596C17.4126 38.0938 14.3068 39.8826 11.7597 40.7308C10.4729 41.1593 9.26828 41.3708 8.38903 41.4763C7.94728 41.5293 7.58207 41.5562 7.32261 41.5698C7.19274 41.5767 7.08896 41.5802 7.01487 41.582C6.97782 41.583 6.94815 41.5834 6.92633 41.5837L6.89951 41.584L6.89061 41.584L6.8873 41.584L6.88594 41.584C6.88534 41.584 6.88477 41.584 6.88477 40.1153C5.41602 40.1153 5.41602 40.1147 5.41602 40.1141L5.41602 40.1127L5.41602 40.1094L5.41607 40.1005L5.41631 40.0737C5.41658 40.0519 5.41707 40.0222 5.41799 39.9851C5.41982 39.9111 5.42337 39.8073 5.4302 39.6774C5.44385 39.418 5.47073 39.0527 5.52372 38.611C5.62919 37.7317 5.84073 36.5271 6.26923 35.2404C7.11745 32.6932 8.90625 29.5875 12.6404 28.3317C13.4093 28.0732 14.2422 28.4868 14.5007 29.2557ZM6.88477 40.1153H5.41602C5.41602 40.9264 6.0736 41.584 6.88477 41.584V40.1153Z" fill="white"/>
<path fill-rule="evenodd" clip-rule="evenodd" d="M38.8835 8.1164C37.1787 7.87052 32.9823 7.7779 28.6877 12.0726L17.2602 23.5L23.4999 29.7397L34.9274 18.3122C39.222 14.0176 39.1294 9.82121 38.8835 8.1164ZM39.3094 5.20993C36.9648 4.87048 31.7384 4.86754 26.6106 9.99543L14.1445 22.4614C13.8691 22.7369 13.7144 23.1105 13.7144 23.5C13.7144 23.8895 13.8691 24.2631 14.1445 24.5386L22.4613 32.8554C23.0349 33.4289 23.9649 33.4289 24.5385 32.8554L37.0045 20.3894C42.1324 15.2615 42.1294 10.0351 41.79 7.69048C41.7041 7.06298 41.4151 6.48073 40.9672 6.03275C40.5192 5.58478 39.9369 5.29584 39.3094 5.20993Z" fill="white"/>
<path fill-rule="evenodd" clip-rule="evenodd" d="M33.8914 19.9567C34.7026 19.9567 35.3602 20.6142 35.3602 21.4254V33.2856L35.36 33.3065C35.3491 34.078 35.035 34.814 34.486 35.3557L28.5587 41.3013C28.1824 41.6771 27.7112 41.9438 27.1952 42.0728C26.6793 42.2018 26.138 42.1883 25.6291 42.0337C25.1203 41.8792 24.6629 41.5894 24.3058 41.1952C23.949 40.8014 23.7058 40.3182 23.6019 39.797C23.6018 39.7966 23.602 39.7974 23.6019 39.797L22.0599 32.1055C21.9005 31.3102 22.416 30.5362 23.2113 30.3767C24.0067 30.2173 24.7807 30.7328 24.9401 31.5281L26.4828 39.223L32.4227 33.2647V21.4254C32.4227 20.6142 33.0803 19.9567 33.8914 19.9567Z" fill="white"/>
<path fill-rule="evenodd" clip-rule="evenodd" d="M13.6936 11.64L13.7145 11.6398H25.5747C26.3858 11.6398 27.0434 12.2974 27.0434 13.1086C27.0434 13.9198 26.3858 14.5773 25.5747 14.5773H13.7353L13.7234 14.5894L13.7233 14.5894L7.7771 20.5173L7.77938 20.5177L15.472 22.0599C16.2673 22.2193 16.7828 22.9934 16.6233 23.7887C16.4639 24.584 15.6899 25.0995 14.8945 24.9401L7.20425 23.3984C7.20381 23.3983 7.20337 23.3982 7.20293 23.3981C6.68182 23.2942 6.19863 23.051 5.80484 22.6942C5.41071 22.3371 5.12091 21.8798 4.96637 21.3709C4.81182 20.862 4.79832 20.3207 4.92731 19.8048C5.0563 19.2888 5.32294 18.8176 5.69878 18.4413L5.70098 18.4391L5.70098 18.4391L11.6444 12.5141C12.1861 11.965 12.9221 11.651 13.6936 11.64Z" fill="white"/>
</svg>

<svg width="47" height="47" fill="none" xmlns="http://www.w3.org/2000/svg"><path fill-rule="evenodd" clip-rule="evenodd" d="M14.5 29.256a1.469 1.469 0 0 1-.923 1.86c-2.49.837-3.813 2.927-4.52 5.053-.282.843-.452 1.656-.554 2.328a14.168 14.168 0 0 0 2.329-.553c2.125-.708 4.215-2.031 5.052-4.52a1.469 1.469 0 1 1 2.784.936c-1.255 3.734-4.361 5.523-6.908 6.37a17.334 17.334 0 0 1-4.745.852l-.089.002h-.04l-.001-1.469H5.416V40.073a7.153 7.153 0 0 1 .014-.397 17.33 17.33 0 0 1 .839-4.437c.848-2.547 2.637-5.652 6.371-6.908a1.469 1.469 0 0 1 1.86.924zm-7.615 10.86H5.416c0 .81.658 1.468 1.469 1.468v-1.469zM38.883 8.116c-1.704-.245-5.9-.338-10.195 3.957L17.26 23.5l6.24 6.24 11.427-11.428c4.295-4.294 4.202-8.49 3.956-10.196zm.426-2.906c-2.344-.34-7.57-.342-12.698 4.785L14.145 22.461a1.47 1.47 0 0 0 0 2.078l8.316 8.316a1.469 1.469 0 0 0 2.078 0L37.004 20.39c5.128-5.127 5.125-10.354 4.786-12.699a2.901 2.901 0 0 0-2.48-2.48z" fill="#fff"/><path fill-rule="evenodd" clip-rule="evenodd" d="M33.891 19.957c.812 0 1.47.657 1.47 1.468v11.86l-.001.022a2.937 2.937 0 0 1-.874 2.049L28.559 41.3a2.938 2.938 0 0 1-4.957-1.504l-1.542-7.691a1.469 1.469 0 0 1 2.88-.578l1.543 7.695 5.94-5.958v-11.84c0-.81.657-1.468 1.468-1.468zM13.694 11.64H25.574a1.469 1.469 0 0 1 0 2.937H13.736l-.012.012-5.946 5.928h.002l7.693 1.543a1.469 1.469 0 1 1-.577 2.88l-7.69-1.542h-.002a2.938 2.938 0 0 1-1.504-4.957l.002-.002 5.943-5.925a2.937 2.937 0 0 1 2.05-.874z" fill="#fff"/></svg>
